X:1
T: Huntingtower
C:
R:Strathspey
Q: 128
K:A
M:4/4
L:1/16
|:AA3 A3B c4 BA3|AA3 c3e a4 fe3|f3g a3f e3c B3A|df3 ce3 B3c A4|
AA3 A3B c4 BA3|AA3 c3e a4 fe3|f3g a3f e3c B3A|df3 ce3 B3c A4|
e2fg a3g fe3 cA3|FB3 B3c d4 cB3|e2fg a3g fe3 cA3|df3 ce3 B3c A4|
e2fg a3g fe3 cA3|FB3 B3c d4 cB3|e2fg a3g fe3 cA3|df3 ce3 B3c A4:|
